X:85
T:I Have a House of My Own with a Chimney Built on Top of It
R:slip jig
C:Martin "Junior" Crehan (1908-1998)
H:This is the longest tune title in my collection!
H:Also in Am #87
D:L\'unasa: Redwood
Z:hn-slipjig-85
M:9/8
L:1/8
K:Bm
BAF FEF ~F3 | BAF FEF ABc | BAF FEF ~F2A | EFE EFA BAF :|
cec e2c e2e | fec fec ecB | cec e2c e2c | BAB c2B AFE |
cec e2c efa | fec fec ecB | fec ecB c3 | BAB c2B AFE ||

